X:2029 
T:The rose upon the briar 
C:Henry Clague and Charles Clague, Ballaclague
O:Isle of Man
S:Traditional 
Z:Clague collection
B:Kiaull Vannin #29
N:See also KV243 
M:2/4 
L:1/8 
Q:180 
K:D 
E2|EF GA|B2 d2|cA FF|E2 B2|B2 cd|f2 gf|e2 c2| 
de ff|e2 dc|BA FF|E2 c2|d2 c2|BA FF|E2|| 
